svg/timer_cancel_outline.svg

<svg xmlns="http://www.w3.org/2000/svg" viewBox="0 0 24 24"><path d="M11 8h2v6h-2zm4-7H9v2h6zm-3 19c-3.87 0-7-3.13-7-7s3.13-7 7-7c3.54 0 6.45 2.62 6.93 6.03.72.05 1.41.2 2.07.47a9.16 9.16 0 0 0-1.97-5.11l1.42-1.42c-.45-.51-.9-.97-1.41-1.41L17.62 6c-1.55-1.26-3.5-2-5.62-2a9 9 0 0 0 0 18c.34 0 .67 0 1-.06-.37-.59-.65-1.25-.82-1.94zm11-1.5c0 2.5-2 4.5-4.5 4.5S14 21 14 18.5s2-4.5 4.5-4.5 4.5 2 4.5 4.5m-3 2.58L15.92 17c-.27.42-.42.94-.42 1.5 0 1.66 1.34 3 3 3 .56 0 1.08-.15 1.5-.42m1.5-2.58c0-1.66-1.34-3-3-3-.56 0-1.08.15-1.5.42L21.08 20c.27-.42.42-.94.42-1.5"/></svg>

<svg xmlns="http://www.w3.org/2000/svg" id="mdi-timer-cancel-outline" viewBox="0 0 24 24"><path d="M11 8H13V14H11V8M15 1H9V3H15V1M12 20C8.13 20 5 16.87 5 13S8.13 6 12 6C15.54 6 18.45 8.62 18.93 12.03C19.65 12.08 20.34 12.23 21 12.5C20.87 10.57 20.16 8.81 19.03 7.39L20.45 5.97C20 5.46 19.55 5 19.04 4.56L17.62 6C16.07 4.74 14.12 4 12 4C7.03 4 3 8.03 3 13S7.03 22 12 22C12.34 22 12.67 22 13 21.94C12.63 21.35 12.35 20.69 12.18 20C12.12 20 12.06 20 12 20M23 18.5C23 21 21 23 18.5 23S14 21 14 18.5 16 14 18.5 14 23 16 23 18.5M20 21.08L15.92 17C15.65 17.42 15.5 17.94 15.5 18.5C15.5 20.16 16.84 21.5 18.5 21.5C19.06 21.5 19.58 21.35 20 21.08M21.5 18.5C21.5 16.84 20.16 15.5 18.5 15.5C17.94 15.5 17.42 15.65 17 15.92L21.08 20C21.35 19.58 21.5 19.06 21.5 18.5Z" /></svg>
